X:2166
L:1/8
M:4/4
K:C
[M:4/4][K:G] CE ve a C aua[Q:1/8=180]"^D modal" .DE |: FEDF ABAF | GE E2 cEGE | FADF A2 dA | 
 GEcE EDDE :| FEFG A2 dA | G2 dG G2 dG | F3 G A2 dA |1 GEcE EDDE :|2 GEcE EDD ||[K:D] B | 
 Addc d3 A | Be e2 Bege | fdec dcAG | EDDE DEFG | Addc dfed | Bdef g2 eg | afge fded | cAGE EDDE ||

